sources/images/icons/spotify.svg

<svg width="204" height="204" viewBox="0 0 204 204" fill="none" xmlns="http://www.w3.org/2000/svg">
<path d="M101.688 0C45.5284 0 0 45.5272 0 101.687C0 157.849 45.5284 203.372 101.688 203.372C157.854 203.372 203.377 157.849 203.377 101.687C203.377 45.5309 157.854 0.00485712 101.687 0.00485712L101.688 0ZM148.321 146.661C146.5 149.649 142.59 150.596 139.603 148.762C115.728 134.179 85.6715 130.876 50.2751 138.963C46.8641 139.74 43.4641 137.603 42.687 134.191C41.9062 130.779 44.0349 127.379 47.4543 126.601C86.19 117.748 119.417 121.562 146.221 137.943C149.208 139.776 150.155 143.674 148.321 146.661ZM160.768 118.97C158.473 122.704 153.591 123.881 149.863 121.586C122.53 104.782 80.8641 99.9163 48.5338 109.73C44.3409 110.997 39.9124 108.634 38.6398 104.448C37.3769 100.255 39.7411 95.8351 43.9268 94.5601C80.8569 83.3546 126.768 88.7825 158.157 108.071C161.885 110.366 163.063 115.247 160.768 118.97ZM161.836 90.1376C129.063 70.6714 74.9906 68.8816 43.6997 78.3785C38.675 79.9024 33.3613 77.0659 31.8386 72.0411C30.3159 67.014 33.15 61.7039 38.1784 60.1764C74.0981 49.2721 133.811 51.3789 171.543 73.7788C176.073 76.4611 177.554 82.2982 174.87 86.8117C172.199 91.3313 166.346 92.8212 161.841 90.1376H161.836Z" fill="black"/>
</svg>

<svg xmlns="http://www.w3.org/2000/svg" width="204" height="204" fill="none" viewBox="0 0 204 204"><path fill="#000" d="M101.7 0a101.7 101.7 0 1 0 0 203.4 101.7 101.7 0 0 0 0-203.4zm46.6 146.7a6.3 6.3 0 0 1-8.7 2c-23.9-14.5-54-17.8-89.3-9.7a6.3 6.3 0 0 1-7.6-4.8 6.3 6.3 0 0 1 4.8-7.6c38.7-8.9 72-5 98.7 11.3 3 1.9 4 5.8 2.1 8.8m12.5-27.7a8 8 0 0 1-11 2.6c-27.3-16.8-69-21.7-101.3-11.9a8 8 0 0 1-9.9-5.3 8 8 0 0 1 5.3-9.8c37-11.2 82.9-5.8 114.3 13.5a8 8 0 0 1 2.6 10.9m1-28.9C129.1 70.7 75 69 43.7 78.4A9.5 9.5 0 0 1 31.8 72a9.5 9.5 0 0 1 6.4-11.8c35.9-11 95.6-8.8 133.3 13.6a9.5 9.5 0 0 1 3.4 13 9.5 9.5 0 0 1-13 3.3z"/></svg>
